X:1
T:The Girl I Left Behind
M:3/4
L:1/4
K:G
 E| E2 B| B3/2 A/2 G| B3/2- A/2- G| E2 E| G3/2 A/2 G| E B, ^D| E3-|\
 E z B| B2 B| A2 B| e3| d2 B| d2 B| G2 A| B3-| B B B| B2 B| A2 B| e2 e|\
 d2 B| d2 B| G2 A| B3-| B E E| E B B| B3/2 A/2 G| B3| E2 E| G3/2- A/2 G|\
 E- B, ^D| E3|
